icons/1_Primary/Selfwealth.svg

<svg width="1024" height="1024" fill="none" xmlns="http://www.w3.org/2000/svg"><g clip-path="url(#a)"><path d="M512 1024c282.77 0 512-229.23 512-512S794.77 0 512 0 0 229.23 0 512s229.23 512 512 512Z" fill="#98DC9A"/><path d="M726 300.15h-92.74v7.21c0 110.87-40.47 197.67-121.77 257.23-59.45 42.61-131.55 62.07-206.34 67.5H298v91.78h7.16c33.81-1.68 156.58-13.37 263.37-91.92C640.36 579.12 726 479.95 726 307.33v-7.18Z" fill="#fff"/></g><defs><clipPath id="a"><path fill="#fff" d="M0 0h1024v1024H0z"/></clipPath></defs></svg>

<svg width="1024" height="1024" viewBox="0 0 1024 1024" fill="none" xmlns="http://www.w3.org/2000/svg">
<g clip-path="url(#clip0_2_3429)">
<path d="M512 1024C794.77 1024 1024 794.77 1024 512C1024 229.23 794.77 0 512 0C229.23 0 0 229.23 0 512C0 794.77 229.23 1024 512 1024Z" fill="#98DC9A"/>
<path d="M726 300.15H633.26V307.36C633.26 418.23 592.79 505.03 511.49 564.59C452.04 607.2 379.94 626.66 305.15 632.09H298V723.87H305.16C338.97 722.19 461.74 710.5 568.53 631.95C640.36 579.12 726 479.95 726 307.33V300.15Z" fill="white"/>
</g>
<defs>
<clipPath id="clip0_2_3429">
<rect width="1024" height="1024" fill="white"/>
</clipPath>
</defs>
</svg>
